src/pos-icons/chevron-down-box.svg

<svg height="24" viewBox="0 0 24 24" width="24" xmlns="http://www.w3.org/2000/svg"><path d="m19 3h-14a2 2 0 0 0 -2 2v14c0 1.11.9 2 2 2h14c1.11 0 2-.89 2-2v-14a2 2 0 0 0 -2-2m-7 12.71-6-6 1.41-1.42 4.59 4.59 4.59-4.59 1.41 1.42z"/></svg>

<?xml version="1.0" encoding="UTF-8"?><!DOCTYPE svg PUBLIC "-//W3C//DTD SVG 1.1//EN" "http://www.w3.org/Graphics/SVG/1.1/DTD/svg11.dtd"><svg xmlns="http://www.w3.org/2000/svg" xmlns:xlink="http://www.w3.org/1999/xlink" version="1.1" id="mdi-chevron-down-box" width="24" height="24" viewBox="0 0 24 24"><path d="M19,3H5A2,2 0 0,0 3,5V19C3,20.11 3.9,21 5,21H19C20.11,21 21,20.11 21,19V5A2,2 0 0,0 19,3M12,15.71L6,9.71L7.41,8.29L12,12.88L16.59,8.29L18,9.71L12,15.71Z" /></svg>
